logos/blogger.svg

<?xml version="1.0" encoding="UTF-8"?>
<svg width="256px" height="256px" viewBox="0 0 256 256" version="1.1" xmlns="http://www.w3.org/2000/svg" xmlns:xlink="http://www.w3.org/1999/xlink" preserveAspectRatio="xMidYMid">
    <g>
				<path d="M29.2512483,254.992269 C24.4605836,253.72987 20.326784,251.872772 16.514167,249.27012 C13.2957355,247.073173 8.59173053,242.531138 6.802814,239.89363 C4.61795254,236.672279 2.10654517,231.155554 1.08302862,227.329645 C0.03908851,223.427024 0.0221687007,221.872919 0.00343641123,128.196289 C-0.0151875002,34.9926489 0.00600325967,32.9431837 1.02922748,28.937751 C4.64779928,14.7729615 15.8531636,3.99576227 30.3049881,0.780639226 C34.4602052,-0.143781505 220.080352,-0.305463349 224.562499,0.611457561 C236.696561,3.09366958 246.234854,10.3914949 251.754322,21.416131 C256.142378,30.1808498 255.750093,20.5358378 255.951063,124.60059 C256.078977,190.813162 255.961045,218.610568 255.539183,222.073771 C253.563052,238.279383 242.404507,250.848939 226.348194,254.95627 C222.240949,256.006816 220.812174,256.021816 127.560008,255.993245 C37.3963261,255.966103 32.765616,255.918961 29.2512483,254.992269 Z" fill="#F06A35"></path>
				<path d="M164.337866,206.474219 C175.80773,204.909633 184.795866,200.312441 193.227933,191.697899 C199.327842,185.465992 203.146242,178.72052 205.641627,169.768356 C206.678289,166.049387 206.765208,164.238657 206.955173,142.402681 C207.098546,125.922027 206.97891,118.203371 206.549733,116.254728 C205.927733,113.430294 204.16451,110.807389 202.152667,109.713771 C201.533575,109.377259 197.566948,108.948345 193.337934,108.760669 C186.251455,108.446145 185.458603,108.307947 183.221853,106.997113 C179.673862,104.917853 178.696734,102.672577 178.687035,96.5768183 C178.668489,84.9296717 173.821489,74.1165588 164.244523,64.3572983 C157.421749,57.4046228 149.810546,52.6985037 141.124078,50.0615188 C139.044551,49.4302228 134.388284,49.2153961 118.791832,49.0310903 C94.3196876,48.7419241 88.8876134,49.2435561 80.5564134,52.5619703 C65.1967931,58.6799152 54.1605904,71.5734121 50.1348639,88.1031899 C49.3787451,91.2078299 49.2319732,96.1835454 49.0533677,124.766159 C48.8296137,160.57413 49.0764361,165.832356 51.313879,172.928491 C53.1624806,178.791361 55.0276184,182.38405 58.8700262,187.483343 C66.1899266,197.197633 77.1601396,204.213455 88.1279903,206.194753 C93.3474363,207.137828 157.742824,207.373775 164.337866,206.474219 Z" fill="#FFFFFF"></path>
				<path d="M162.316789,150.44111 C166.550498,154.394091 165.657502,161.431901 160.555561,164.321487 L155.312791,165.174081 L124.374077,165.532063 C103.514303,165.726755 97.2464977,165.316319 95.9652267,164.807861 L95.9243514,164.790877 C93.4073759,163.694145 91.0634456,160.647545 90.6583554,157.946233 C90.2724795,155.373021 91.5656806,151.835385 93.5480066,150.041394 L93.9893528,149.657494 C95.9431759,148.052095 98.1913725,147.763727 116.623839,147.699423 L137.940545,147.676814 C159.489838,147.692932 159.678977,147.978136 162.316789,150.44111 Z M131.944233,92.089437 C135.229927,93.7493268 136.657629,96.0896219 136.657629,99.8156877 C136.657629,103.051503 135.417959,105.356378 132.663827,107.213649 L132.130301,107.555093 C130.7902,108.354136 129.475963,108.493893 119.088532,108.574748 L112.386196,108.613165 C104.077281,108.629973 97.681282,108.455884 96.6590456,108.174216 C90.7953069,106.557917 88.6043352,98.1450032 92.9140112,93.7939988 L93.315319,93.3958498 C95.6224196,91.161301 97.0897298,90.929913 110.606768,90.9090578 L120.792571,90.9172906 C129.400651,90.957227 130.088322,91.1520233 131.944233,92.089437 Z" fill="#F06A35"></path>
		</g>
</svg>

<svg preserveAspectRatio="xMidYMid" viewBox="0 0 256 256" xmlns="http://www.w3.org/2000/svg">
  <path fill="#F06A35" d="M29.251 254.992c-4.79-1.262-8.924-3.12-12.737-5.722-3.218-2.197-7.922-6.739-9.711-9.376-2.185-3.222-4.696-8.738-5.72-12.564-1.044-3.903-1.06-5.457-1.08-99.134-.018-93.203.003-95.253 1.026-99.258C4.648 14.773 15.853 3.996 30.305.78 34.46-.144 220.08-.305 224.562.61c12.135 2.483 21.673 9.78 27.192 20.805 4.388 8.765 3.996-.88 4.197 103.185.128 66.212.01 94.01-.412 97.473-1.976 16.205-13.134 28.775-29.19 32.882-4.108 1.05-5.537 1.066-98.789 1.037-90.164-.027-94.794-.074-98.309-1Z"/>
  <path fill="#FFF" d="M164.338 206.474c11.47-1.564 20.458-6.162 28.89-14.776 6.1-6.232 9.918-12.977 12.414-21.93 1.036-3.719 1.123-5.53 1.313-27.365.144-16.481.024-24.2-.405-26.148-.622-2.825-2.385-5.448-4.397-6.541-.62-.337-4.586-.766-8.815-.953-7.087-.315-7.88-.453-10.116-1.764-3.548-2.08-4.525-4.324-4.535-10.42-.019-11.647-4.866-22.46-14.442-32.22-6.823-6.952-14.434-11.658-23.12-14.295-2.08-.632-6.737-.847-22.333-1.03-24.472-.29-29.904.212-38.236 3.53-15.36 6.118-26.395 19.011-30.421 35.541-.756 3.105-.903 8.08-1.082 36.663-.223 35.808.023 41.066 2.26 48.162 1.85 5.863 3.715 9.456 7.557 14.555 7.32 9.715 18.29 16.73 29.258 18.712 5.22.943 69.615 1.179 76.21.28Z"/>
  <path fill="#F06A35" d="M162.317 150.441c4.233 3.953 3.34 10.99-1.761 13.88l-5.243.853-30.939.358c-20.86.195-27.128-.216-28.409-.724l-.04-.017c-2.518-1.097-4.862-4.143-5.267-6.845-.386-2.573.908-6.11 2.89-7.905l.441-.384c1.954-1.605 4.202-1.893 22.635-1.958l21.317-.022c21.549.016 21.738.301 24.376 2.764ZM131.944 92.09c3.286 1.66 4.714 4 4.714 7.727 0 3.236-1.24 5.54-3.994 7.398l-.534.341c-1.34.8-2.654.939-13.041 1.02l-6.703.038c-8.309.017-14.705-.157-15.727-.439-5.864-1.616-8.055-10.029-3.745-14.38l.401-.398c2.307-2.235 3.775-2.466 17.292-2.487l10.186.008c8.608.04 9.295.235 11.151 1.172Z"/>
</svg>
